X:1
T: Father Dollard's Favourite
C:
R:Jig
Q:180
K:D
M:6/8
L:1/16
D2F2A2 c2d2c2|A2F2A2 B2G2E2|D2F2A2 d2c2d2|A2F2A2 g2f2e2|D2F2A2 c2d2c2|A2F2A2 B2G2E2|a2f2d2 b2g2e2|A2F2D2 E4D2|
D2F2A2 c2d2c2|A2F2A2 B2G2E2|D2F2A2 d2c2d2|A2F2A2 g2f2e2|D2F2A2 c2d2c2|A2F2A2 B2G2E2|a2f2d2 b2g2e2|A2F2D2 E4D2|
f2e2f2 g2f2g2|a2f2d2 A2F2D2|f2e2f2 g2f2g2|D2F2A2 B4A2|f2d2f2 g2f2g2|a2f2d2 b2g2e2|f2g2a2 B2c2d2|A2F2D2 E4D2|
f2e2f2 g2f2g2|a2f2d2 A2F2D2|f2e2f2 g2f2g2|D2F2A2 B4A2|f2d2f2 g2f2g2|a2f2d2 b2g2e2|f2g2a2 B2c2d2|A2F2D2 E4D2||
